X: 40641
T: Top Gallantsail
R: strathspey
M: 4/4
K: Amajor
[K:F#min]
F2 F>G A>B c>e|f>c e>c B/A/G/F/ E>G|F2 F>G A>B c>e|1 f>c e>c f2 f>c:|2 f>c e>c f2 f>g||
|:a>g (3fga g>c' b>a|g>f e>c B/A/G/F/ E>G|F2 F>G A>B c>e|1 f>c e>c f2 f>g:|2 f>c e>c f2 f>c||

